images/icons/arrow-top-right.svg

<svg width="64" height="64" viewBox="0 0 64 64" fill="none" xmlns="http://www.w3.org/2000/svg">
<path fill-rule="evenodd" clip-rule="evenodd" d="M1 32C1 49.1208 14.8792 63 32 63C49.1208 63 63 49.1208 63 32C63 14.8792 49.1208 1 32 1C14.8792 1 1 14.8792 1 32ZM32 0C14.3269 0 0 14.3269 0 32C0 49.6731 14.3269 64 32 64C49.6731 64 64 49.6731 64 32C64 14.3269 49.6731 0 32 0Z" fill="white"/>
<g clip-path="url(#clip0)">
<path d="M39.7744 23.1903C39.774 23.1903 39.7736 23.1902 39.7731 23.1902L32.8622 23.2208C32.3445 23.2231 31.9265 23.6446 31.9288 24.1624C31.9311 24.6802 32.3526 25.0981 32.8704 25.0958L37.5103 25.0753L23.4994 39.1425C23.134 39.5093 23.1352 40.1029 23.5021 40.4683C23.8689 40.8337 24.4625 40.8325 24.8279 40.4656L38.8388 26.3985L38.8369 31.0384C38.8367 31.5562 39.2563 31.976 39.774 31.9762C40.2919 31.9765 40.7117 31.5568 40.7119 31.0391L40.7148 24.1281C40.7148 24.1277 40.7147 24.1273 40.7148 24.1268C40.7142 23.6081 40.2915 23.1887 39.7744 23.1903Z" fill="white"/>
</g>
<defs>
<clipPath id="clip0">
<rect width="24" height="24" fill="white" transform="translate(15 32) rotate(-45.1148)"/>
</clipPath>
</defs>
</svg>

<svg width="64" height="64" fill="none" xmlns="http://www.w3.org/2000/svg"><path fill-rule="evenodd" clip-rule="evenodd" d="M1 32c0 17.12 13.88 31 31 31 17.12 0 31-13.88 31-31C63 14.88 49.12 1 32 1 14.88 1 1 14.88 1 32zM32 0C14.327 0 0 14.327 0 32c0 17.673 14.327 32 32 32 17.673 0 32-14.327 32-32C64 14.327 49.673 0 32 0z" fill="#fff"/><g clip-path="url(#clip0)"><path d="M39.774 23.19l-6.912.03a.938.938 0 00.008 1.876l4.64-.02L23.5 39.141a.937.937 0 101.328 1.324l14.01-14.068-.001 4.64a.937.937 0 101.875.001l.003-6.91v-.002a.938.938 0 00-.94-.937z" fill="#fff"/></g><defs><clipPath id="clip0"><path fill="#fff" transform="rotate(-45.115 46.018 -2.055)" d="M0 0h24v24H0z"/></clipPath></defs></svg>
